assets/images/icons/whatsapp.svg

<svg width="24" height="24" viewBox="0 0 24 24" fill="none" xmlns="http://www.w3.org/2000/svg">
<path fill-rule="evenodd" clip-rule="evenodd" d="M19.9402 4.05219C18.9716 3.08181 17.8191 2.31238 16.5496 1.78846C15.28 1.26454 13.9186 0.996557 12.5442 1.00003C6.78119 1.00003 2.08968 5.66811 2.08735 11.4061C2.08735 13.24 2.56838 15.0298 3.48269 16.6086L2 22L7.54292 20.5522C9.07615 21.3828 10.7939 21.8184 12.5396 21.8192H12.5442C18.3061 21.8192 22.9976 17.1511 23 11.4131C23.0039 10.0458 22.7355 8.69128 22.2104 7.42784C21.6852 6.16439 20.9136 5.01707 19.9402 4.05219ZM12.5442 20.063H12.5407C10.9841 20.0631 9.45613 19.6463 8.11713 18.8563L7.80032 18.6685L4.51114 19.5274L5.38818 16.3362L5.18202 16.0093C4.31173 14.6303 3.85102 13.0345 3.85307 11.4061C3.8554 6.6372 7.75373 2.75737 12.5477 2.75737C13.6895 2.75485 14.8203 2.97771 15.8749 3.41307C16.9295 3.84843 17.8869 4.48763 18.6916 5.29369C19.5007 6.0959 20.1419 7.04975 20.5784 8.1001C21.0148 9.15045 21.2377 10.2765 21.2342 11.4131C21.2319 16.182 17.3336 20.063 12.5442 20.063ZM17.3114 13.5842C17.0494 13.4533 15.7659 12.825 15.5259 12.738C15.2872 12.6511 15.1136 12.6082 14.9389 12.8679C14.7642 13.1275 14.2634 13.7129 14.1108 13.8868C13.9582 14.0607 13.8056 14.0815 13.5447 13.9517C13.2838 13.8219 12.4417 13.5472 11.4436 12.6615C10.6667 11.9718 10.1426 11.121 9.99 10.8601C9.83742 10.5993 9.97369 10.4591 10.1053 10.3292C10.2229 10.2133 10.3662 10.0255 10.4967 9.87367C10.6271 9.72181 10.6702 9.61401 10.7576 9.44013C10.8449 9.26625 10.8018 9.11439 10.7354 8.98456C10.6702 8.85358 10.1472 7.57383 9.92943 7.05335C9.71862 6.5491 9.50315 6.61633 9.34241 6.60938C9.17595 6.6026 9.00935 6.59951 8.84275 6.6001C8.71027 6.60346 8.57991 6.63403 8.45986 6.68988C8.3398 6.74573 8.23264 6.82567 8.14508 6.92468C7.90515 7.18549 7.23077 7.81378 7.23077 9.09353C7.23077 10.3733 8.16721 11.6101 8.29766 11.784C8.42811 11.9579 10.1402 14.5835 12.7609 15.7102C13.3852 15.978 13.872 16.138 14.2506 16.2585C14.876 16.4567 15.4456 16.4278 15.8963 16.3617C16.3983 16.2875 17.4419 15.7334 17.6597 15.126C17.8775 14.5186 17.8775 13.9981 17.8123 13.8891C17.7471 13.7802 17.5712 13.7141 17.3114 13.5842Z" fill="white"/>
</svg>

<svg width="24" height="24" fill="none" xmlns="http://www.w3.org/2000/svg"><path fill-rule="evenodd" clip-rule="evenodd" d="M19.94 4.052a10.391 10.391 0 0 0-3.39-2.264A10.432 10.432 0 0 0 12.544 1C6.781 1 2.09 5.668 2.087 11.406c0 1.834.481 3.624 1.396 5.203L2 22l5.543-1.448a10.501 10.501 0 0 0 4.997 1.267h.004c5.762 0 10.454-4.668 10.456-10.406a10.307 10.307 0 0 0-3.06-7.36zm-7.396 16.011h-.003a8.705 8.705 0 0 1-4.424-1.207l-.317-.188-3.289.86.877-3.192-.206-.327a8.604 8.604 0 0 1-1.329-4.603c.002-4.769 3.9-8.649 8.695-8.649a8.67 8.67 0 0 1 6.144 2.537 8.565 8.565 0 0 1 2.543 6.12c-.003 4.768-3.901 8.649-8.69 8.649zm4.767-6.479c-.262-.13-1.545-.759-1.785-.846-.239-.087-.412-.13-.587.13s-.676.845-.828 1.019c-.153.174-.305.194-.566.065-.261-.13-1.103-.405-2.101-1.29-.777-.69-1.301-1.541-1.454-1.802-.153-.26-.016-.4.115-.53.118-.117.261-.305.392-.456.13-.152.173-.26.26-.434.088-.174.045-.326-.022-.455-.065-.131-.588-1.411-.806-1.932-.21-.504-.426-.437-.587-.444-.166-.006-.333-.01-.5-.009a.966.966 0 0 0-.697.325c-.24.26-.914.889-.914 2.169s.936 2.516 1.067 2.69c.13.174 1.842 2.8 4.463 3.926.624.268 1.111.428 1.49.549.625.198 1.195.169 1.645.103.502-.074 1.546-.629 1.764-1.236.218-.607.218-1.128.152-1.237-.065-.109-.24-.175-.5-.305z" fill="#fff"/></svg>
